X:70
T:Devoran Reel
C:Jimmy Shand
R:polka 32 reel
Z:PJHeadford from memory
M:4/4
L:1/8
Q:2/4=90
K:D
|:F2|D2D2 FEDF|A2A2 BAFA|d2d2 e2de|f2e2 egfe|
D2D2 FEDF|A2A2 BAFA|d2d2 e2de|f2d2 d2:|
|:e2|f2f2 f2ed|e2A2 A4|B2B2 G2BG|B2A2 A4|
G2G2 E2GE|F2A2 d4|BAGF EFGA|F2D2 D2:|]

